X:19138
T:Xota de La Madalena (MG 40)
T:Jota de La Madalena (MG 40)
R:Xota
C:Versión de Gaiteru Tradicional
S:Música Tradicional Asturiana, (C) Tello & Tito. Asturies, 2001.
S:http://pagina.de/MusTradAst <telloytito@asturies.org>
O:Llanes
A:Asturies
Z:Métodu de Gaita 40
E:Nivel 4
M:3/8
L:1/8
Q:3/8=80
K:C
|ccc|cBA|BGc-|c B2|AGF-|F E2|G F2-|F3|
|BBB|BAG|~AGc-|c B2|AGF-|F E2|G F2-|F3|
|Bcd|~dcd|e2 d|c3|eee|~edc|dBc-|c A2|
|BGA-|A F2|~G>F E-|E3|eee|~edc|dBc-|c A2|
|BGA-|A B2|d2 c-|c c/B/A/G/|~AGc|G~AG|B2 A-|A B/A/G/F/|
|GF~A|F~GF|~A2 G-|G c/B/A/G/|~AGc|~eBc|d2 A-|A d/c/B/A/|
|cGE|GFD|CEG|c>BA/G/|~AGc|G~AG|B2 A-|A B/A/G/F/|
|GF~A|F~GF|~A2 G-|G c/B/A/G/|~AGc|eBc|d2 A-|A d/c/B/A/|
|cGE|GFD|CEG|c>dc/d/|
|: c B/c/B/c/|B A/B/A/B/|AGc-|c G/A/G/A/|
|G F/G/ A-|A F/G/F/G/|F E/F/ G-|G c/d/c/d/|
|c B/c/B/c/|B A/B/A/B/|AGc-|c G/A/G/A/|
|G F/G/ A-|A G/A/B/c/|~d2 B|[1 c3-|c c/d/c/d/ :|[2 c3||
"coda"
|d/e/ f/e/ d/c/|B/c/d/e/ c-|c3|


